!!!OTL: Gang auf die Alm.
!!!OTL-incipit: I WOAS A SCHOENI GLOCKEN
!!!ARE: Europa, Mitteleuropa, Deutschland, Bayern; Tirol
!!!SCT: Z1199
!!!YEM: Copyright 1995, estate of Helmut Schaffrath.
**kern	**text
*ICvox	*
*M3/4	*
*k[b-e-]	*
*B-:	*
!LO:TX:a:t=Bayern und Tyrol.	!
{8fL	J
8e-J	.
=1	=1
8dL	woas
8b-J	.
8fL	a
8b-J	.
4d	ſchöni
=2	=2
8cL	Glok-
8aJ	.
8fL	-ken,
8ccJ}	.
{4cc	di
=3	=3
8a/L	hat
8ccJ	.
8a/L	an
8ccJ	.
4e-	ſchön
=4	=4
8dL	Klang,
8b-J}	.
{8fL	und
8b-J	.
4dd	i
=5	=5
8dL	woas
8b-J	.
8fL	a
8b-J	.
8ddL	ſchön's
8ffJ	.
=6	=6
8ggL	Diendl,
8ff	.
8ee-	.
8ccJ}	.
{4a	das
=7	=7
8aL	hot
8ccJ	.
4f	a
8aL	ſchön'n
8ccJ	.
=8	=8
2b-}	Gang.
!LO:TUP:b	!
{(12fL	La
12b-	.
12ccJ)	.
=9	=9
4dd	la
8bb-L	la
8ddJ	.
8bb-L	la
8ddJ	.
=10	=10
8ddL	la
8ccJ	.
8aaL	la
8ccJ}	.
{8ccL	la
8ddJ	.
=11	=11
4ee-	la
8cccL	la
8ee-J	.
8cccL	la
8ee-J	.
=12	=12
8ee-L	la
8ddJ	.
8bb-L	la
8ddJ}	.
{8ddL	la
8ee-J	.
=13	=13
4ff	la
8dddL	la
8ffJ	.
8dddL	la
8ffJ	.
=14	=14
8ffL	la
8ee-J	.
8cccL	la
8ee-J}	.
{8ccL	la
8ddJ	.
=15	=15
4ee-	la
8cccL	la
8ee-J	.
8ccL	la
8aaJ	.
=16	=16
4bb-	la!
4r}	.
==	==
!!!AGN: Liebes - Lied
!! Die letzten 8 Takte werden auf die Silbe 'la' gesungen.
!!!ONB: ESAC (Essen Associative Code) Database: ZUCCAL
!!!AMT: simple triple
!!!AIN: vox
!!!EED: Helmut Schaffrath
!!!EEV: 1.0
!!!GTL: V. Lieder der Minne.
!!!URL-scan: https://www.digitale-sammlungen.de/de/view/bsb11160573?page=403
!!!ENC: Anna Maria Matuszewska
!!!EEV: 2025/02/05
*-	*-
